X:1
T:≲1970
T:ເນື້ອຮ້ອງ & ທຳນອງ : ພູວາ ວໍຣະເທດ ນັກຮ້ອງຕົ້ນສະບັບ : ສີເມືອງ ສຸວັນລາສີ
T:ຫຼັງສາກ
T:© studiodavong
C:Phouva VORATHETH
Z:© studiodavong
%%score ( 1 2 )
L:1/8
Q:1/4=60
M:4/4
K:Eb
V:1 treble nm="Piano" snm="Pno."
V:2 treble 
V:1
"^Slow" z8 |: %1
w: |
"Eb""_(Guitar) __________________________________________________________________________________________________" (6:4:6EGBeBG"Bb" (6:4:6B,DFBFD | %2
w: |
"Cm" (6:4:6CEGcGE"Ab" (6:4:6A,CEAEC |"Bb" (6:4:6B,DFBFD (6:4:6BFDBFD :|"Eb""^A" E ccc"Cm" c3{c} d | %5
w: ||* ພາຍ ໃນ ດວງ ຕາ ຂອງ|
"Bb" Bc"Eb" G3 EF{G}B |"Cm"{B} C4 z CEG |"Ab"{G} c3 d"Bb" cBFG |"Eb""Gm" G6{d} f2 | %9
w: ນາງ ນັ້ນ ບອກ ບອກ ກັບ ອ້າຍ|ວ່າ ຈະ ບໍ່ ໃຝ່|ຫາ ຍອດ ຊາຍ ຄົນ ອື່ນ ມາ|ຄອງ ນ້ອງ|
"Bb" d3{d} f dG=AB |"Cm"{B} c3{c} d"Ab9" BcdF |"Eb" G3{F} E"Fm" F3{D} E |"Cm" C8 |: %13
w: ເອງ ສາ ບານ ຈະ ບໍ່ ມີ|ສອງ ອ້າຍ ຈຶ່ງ ປະ ຄັບ ປະ|ຄອງ ເທີດ ທູນ ຂວັນ|ໃຈ...|
"Eb""^B" G ccc"Cm" c3 d |"Bb" Bc"Eb" G3 EF{G}B |"Cm"{B} C4 z CEG |"Ab"{G} c3 d"Bb" cB{B}FG | %17
w: * ພຽງ ນາງ ຄົນ ດຽວ ທີ່|ຊາຍ ມອບ ຈິດ ຊີ ວິດ ຍຶດ|ໝັ້ນ ຈະ ບໍ່ ແປ|ຜັນ ຮັກ ນາງ ຊົ່ວ ຊີບ ມະ|
"Eb""Gm" G6 f2 |"Bb" d3{d} f dG=AB |"Cm"{B} c3 c"Ab9" d{c}dGG |"Eb" B3 E"Bb" F3 C/C/ | %21
w: ລາຍ ວິ່ງ|ວອນ ຮັກ ເຮົາ ຈົ່ງ ຢ່າ ສ|ລາຍ ກ່ອນ ທີ່ ອ້າຍ ຈະ ຈາກ|ໄປ ຕ່າງ ແດນ ຈະ ກັບ|
"Eb""Bb" E8 ||[M:2/4]"Eb""^C" G{F} G CE |[M:4/4]"Fm"{FG} F3 d"Gm" BdcB |"Cm" G3 c"Bb"{d} BcGG | %25
w: ມາ...|* ສຽງ ສັ່ງ ຂອງ|ອ້າຍ ເໝືອນ ບອກ ໃຫ້ ນາງ ມີ|ໃໝ່ ຍາມ ເມື່ອ ອ້າຍ ຢູ່ ຫ່າງ|
"Eb" B3{G} B"Cm" GEF{G}B |"Eb""Gm" G6{d} f2 |"Bb" d3{d} c d{d}GB{c}B |"Cm" c3 d"Ab9" B{c}BcF | %29
w: ໄກ ນ້ອງ ນາງ ກໍ ລືມ ສັນ|ຍາ ນ້ອງ|ຄົງ ສິ້ນ ຮັກ ສິ້ນ ຄວາມ ເມດ|ຕາ ອ້າຍ ຈຶ່ງ ຊອກ ຊໍ້າ ອຸ|
"Eb" G3 F"Fm" F3{D} E |"Cm" C8 ||"Eb""^D" G ccc"Cm" c3 d |"Bb" Bc"Eb"{c} G3 EF{G}B |"Cm" C4 z CEG | %34
w: ຣາ ກາ ຍາ ໝອງ|ຊວງ...|* ພຽງ ນາງ ຄົນ ດຽວ ທີ່|ຊາຍ ຄິດ ວ່າ ຈະ ບໍ່ ຜັນ|ແປ ແຕ່ ເຫດ ຈິງ|
"Ab"{cd} c3 d"Bb" cBFG |"Eb""Gm" G6 f2 |"Bb" d3{d} f dG=AB |"Cm"{B} c3 c"Ab9" Bdc{B}c | %38
w: ແທ້ ນ້ອງ ນາງ ນັ້ນ ແຫຼະ ຈອມ|ລວງ ເພື່ອ|ນາງ ອ້າຍ ເອງ ຈະ ບໍ່ ຂັດ|ຂວາງ ແຕ່ ຢ່າ ໃຫ້ ຄົນ ເຂົາ|
"Eb" G3{G} B"Bb" FEFC!dacoda! ||1"Eb""Bb""_(Solo verse B)" E8 :|2[M:2/4]O"Eb""^E" E4 |: %41
w: ລວງ ເໝືອນ ນາງ ລວງ ອ້າຍ ເຖີດ|ເອີຍ...|ເອີຍ...|
[M:4/4]"Eb""_(Guitar) ________________________________________________________________________________ (Repeat 'till fade out...)" (6:4:6EGBeBG"Bb" (6:4:6B,DFBFD | %42
w: |
"Cm" (6:4:6CEGcGE"Ab" (6:4:6A,CEAEC |"Bb" (6:4:6B,DFBFD (6:4:6BFDBFD :| %44
w: ||
V:2
 x8 |: x8 | x8 | x8 :| x8 | x8 | x8 | x8 | x8 | x8 | x8 | x8 | z2 z (G, CDEF) |: x8 | x8 | x8 | %16
 x8 | x8 | x8 | x8 | x8 | z2 z (E FGCF) ||[M:2/4] x4 |[M:4/4] x8 | x8 | x8 | x8 | x8 | x8 | x8 | %30
 z2 z (G, CDEF) || x8 | x8 | x8 | x8 | x8 | x8 | x8 | x8 ||1 z2 (GB FE F/E/C) :|2[M:2/4] x4 |: %41
[M:4/4] x8 | x8 | x8 :| %44

